X:14
T:Compli'mens dau Bregeay
R:chanson
S:Le Parler Poitevin - Emilien Traver
N:p. 113
O:France
A:Poitou
Z: <anamnese@laposte.net>
M:2/4
L:1/8
Q:1/4=135
K:C
G/ c d | e>d c e | d>G c d | e>d c e | d>G c d | e>d e B | 
A>G A B | c2d2 | G>G c d | e>d c B | A>G A B | c2d2 | c4 ||
W:Perrot, quarche ton chalumia, (bis)
W:Plante m'y thi tous tes agneas Pervenir ocque nous ;
W:Vint t'en veure thieute chouse de bia
W:Que j'allons veure tertous. /.../
